static/assets/head_icons_png/man/bizi/1036185.svg

<svg xmlns="http://www.w3.org/2000/svg" width="8" height="10"><g transform="translate(3.6 4.6)"><radialGradient id="a" gradientUnits="userSpaceOnUse" gradientTransform="matrix(.01143 .0008 -.0008 .01143 -.75 2.45)" spreadMethod="pad" cx="0" cy="0" r="819.2" fx="0" fy="0"><stop offset="0" stop-color="#e6835c" stop-opacity=".722"/><stop offset=".227" stop-color="#ed9e76" stop-opacity=".553"/><stop offset=".694" stop-color="#f0aa86" stop-opacity=".392"/><stop offset=".894" stop-color="#f0aa86" stop-opacity="0"/></radialGradient><path d="M3.65-4.25q-1.75.35-2.4 1-.7.6-.55 2.45l.4 3.1v.1l.25 1.4-.25.45-.6.15H.25l-.8.15-.7.1-1.25-.35-.7-.15q-.35-.1-.4-.75 0-.75.8-.4l1.6.55h.6l.5-.45q.4-.4.25-1.05l-.4-4.55.2-.85 1.1-1.1 2.6.2" fill="url(#a)"/><path d="M.4 3.95v.1l-.6.2-.35.05.1-.1q.4-.35.65-.3l.2.05m-2.9-.15q.2 0 .5.25l.45.35q-.35-.3-.8-.3l-.5-.2.1-.05.25-.05" fill="#823709"/><radialGradient id="b" gradientUnits="userSpaceOnUse" gradientTransform="matrix(.00073 .00005 -.00006 .00305 -1.25 -.4)" spreadMethod="pad" cx="0" cy="0" r="819.2" fx="0" fy="0"><stop offset=".314" stop-color="#fff" stop-opacity=".651"/><stop offset="1" stop-color="#fff" stop-opacity="0"/></radialGradient><path d="M-.9-2.1l.1 1.8-.2 1.75-.05.35h-.05l-.25.3-.15-.3v-.05l-.15-.35-.05-1.8.15-1.75.3-.65.35.7" fill="url(#b)"/><radialGradient id="c" gradientUnits="userSpaceOnUse" gradientTransform="matrix(.001 .00006 -.00008 .00105 -1.15 2.5)" spreadMethod="pad" cx="0" cy="0" r="819.2" fx="0" fy="0"><stop offset=".314" stop-color="#fff" stop-opacity=".671"/><stop offset="1" stop-color="#fff" stop-opacity="0"/></radialGradient><path d="M-1.75 1.95q.3-.25.65-.25l.5.3.25.65-.3.55-.6.2-.55-.25-.25-.6.3-.6" fill="url(#c)"/></g></svg>

<?xml version="1.0" encoding="utf-8"?>
<svg version="1.1" id="Layer_1"
xmlns="http://www.w3.org/2000/svg"
xmlns:xlink="http://www.w3.org/1999/xlink"
xmlns:author="http://www.sothink.com"
width="8px" height="10px"
xml:space="preserve">
<g id="498" transform="matrix(1, 0, 0, 1, 3.6, 4.6)">
<radialGradient
id="RadialGradID_4264" gradientUnits="userSpaceOnUse" gradientTransform="matrix(0.0114288, 0.000808716, -0.000808716, 0.0114288, -0.75, 2.45)" spreadMethod ="pad" cx="0" cy="0" r="819.2" fx="0" fy="0" >
<stop  offset="0"  style="stop-color:#E6835C;stop-opacity:0.721569" />
<stop  offset="0.227451"  style="stop-color:#ED9E76;stop-opacity:0.552941" />
<stop  offset="0.694118"  style="stop-color:#F0AA86;stop-opacity:0.392157" />
<stop  offset="0.894118"  style="stop-color:#F0AA86;stop-opacity:0" />
</radialGradient>
<path style="fill:url(#RadialGradID_4264) " d="M3.65,-4.25Q1.9 -3.9 1.25 -3.25Q0.55 -2.65 0.7 -0.8L1.1 2.3L1.1 2.4L1.35 3.8L1.1 4.25L0.5 4.4L0.25 4.4L-0.55 4.55L-1.25 4.65L-2.5 4.3L-3.2 4.15Q-3.55 4.05 -3.6 3.4Q-3.6 2.65 -2.8 3L-1.2 3.55L-0.6 3.55L-0.1 3.1Q0.3 2.7 0.15 2.05L-0.25 -2.5L-0.05 -3.35L1.05 -4.45L3.65 -4.25" />
<path style="fill:#823709;fill-opacity:1" d="M0.4,3.95L0.4 4.05L-0.2 4.25L-0.55 4.3L-0.45 4.2Q-0.05 3.85 0.2 3.9L0.4 3.95M-2.5,3.8Q-2.3 3.8 -2 4.05L-1.55 4.4Q-1.9 4.1 -2.35 4.1L-2.85 3.9L-2.75 3.85L-2.5 3.8" />
<radialGradient
id="RadialGradID_4265" gradientUnits="userSpaceOnUse" gradientTransform="matrix(0.000732422, 4.57764e-005, -6.10352e-005, 0.00305176, -1.25, -0.4)" spreadMethod ="pad" cx="0" cy="0" r="819.2" fx="0" fy="0" >
<stop  offset="0.313725"  style="stop-color:#FFFFFF;stop-opacity:0.65098" />
<stop  offset="1"  style="stop-color:#FFFFFF;stop-opacity:0" />
</radialGradient>
<path style="fill:url(#RadialGradID_4265) " d="M-0.9,-2.1L-0.8 -0.3L-1 1.45L-1.05 1.8L-1.1 1.8L-1.35 2.1L-1.5 1.8L-1.5 1.75L-1.65 1.4L-1.7 -0.4L-1.55 -2.15L-1.25 -2.8L-0.9 -2.1" />
<radialGradient
id="RadialGradID_4266" gradientUnits="userSpaceOnUse" gradientTransform="matrix(0.000991821, 6.10352e-005, -7.62939e-005, 0.00105286, -1.15, 2.5)" spreadMethod ="pad" cx="0" cy="0" r="819.2" fx="0" fy="0" >
<stop  offset="0.313725"  style="stop-color:#FFFFFF;stop-opacity:0.670588" />
<stop  offset="1"  style="stop-color:#FFFFFF;stop-opacity:0" />
</radialGradient>
<path style="fill:url(#RadialGradID_4266) " d="M-1.75,1.95Q-1.45 1.7 -1.1 1.7L-0.6 2L-0.35 2.65L-0.65 3.2L-1.25 3.4L-1.8 3.15L-2.05 2.55L-1.75 1.95" />
</g>
</svg>
